assets/images/svg/user.svg

<svg width="9" height="22" viewBox="0 0 9 22" fill="none" xmlns="http://www.w3.org/2000/svg">
<path d="M4.00657 5.36963C1.89139 5.3699 -0.204345 6.27899 0.0159751 8.09555L0.555975 12.044C0.650745 12.7387 1.12028 13.8498 1.82147 13.8498H1.87141L2.4457 20.4732C2.47054 20.7712 2.68654 21.0132 2.9857 21.0132H5.1457C5.44486 21.0132 5.66086 20.7712 5.6857 20.4732L6.26 13.8498H6.31022C7.01141 13.8498 7.48066 12.7387 7.5757 12.044L8.1157 8.09555C8.25718 6.27737 6.12202 5.36909 4.00657 5.36963Z" fill="#00162E"/>
<path d="M4.06107 5.67C5.6268 5.67 6.89607 4.40073 6.89607 2.835C6.89607 1.26927 5.6268 0 4.06107 0C2.49535 0 1.22607 1.26927 1.22607 2.835C1.22607 4.40073 2.49535 5.67 4.06107 5.67Z" fill="#00162E"/>
</svg>

<svg xmlns="http://www.w3.org/2000/svg" width="9" height="22" fill="none" viewBox="0 0 9 22"><path fill="#00162e" d="M4.007 5.37c-2.116 0-4.211.909-3.991 2.726l.54 3.948c.095.695.564 1.806 1.265 1.806h.05l.575 6.623c.025.298.24.54.54.54h2.16c.299 0 .515-.242.54-.54l.574-6.623h.05c.701 0 1.17-1.111 1.266-1.806l.54-3.948c.141-1.819-1.994-2.727-4.11-2.726"/><path fill="#00162e" d="M4.061 5.67a2.835 2.835 0 1 0 0-5.67 2.835 2.835 0 0 0 0 5.67"/></svg>
